X:8203
T:Young Jenny the Pride of our Town
O:england
B:Joyce, P. W.; "Old Irish Folk Music and Songs"
R:jig/song air
L:1/8
M:6/8
K:G
((3d/e/f/)|gfe dBG|cBc def|gfe dBG|cAA A2 (3d/e/f/|
gfe dBd|eag fef|gfe dBA|BGG G2::d|
g/a/ba gdc|Bdd d2 e/f/|g/a/bg dBd|eaa a2 d|
g/a/ba gBd|egf gba|gfe dBA|BGG G2:|
